icons/device-camera-video-16.svg

<svg width="16" height="16" viewBox="0 0 16 16" xmlns="http://www.w3.org/2000/svg">
  <path fill-rule="evenodd" clip-rule="evenodd" d="M16 3.75C16 3.4798 15.8547 3.23048 15.6195 3.09735C15.3844 2.96422 15.0958 2.96786 14.8641 3.10688L11 5.42536V4.75C11 3.7835 10.2165 3 9.25 3H1.75C0.783502 3 0 3.7835 0 4.75V11.25C0 12.2165 0.783502 13 1.75 13H9.25C10.2165 13 11 12.2165 11 11.25V10.5746L14.8641 12.8931C15.0958 13.0321 15.3844 13.0358 15.6195 12.9026C15.8547 12.7695 16 12.5202 16 12.25V3.75ZM11 8.82536L14.5 10.9254V5.07464L11 7.17464V8.82536ZM9.5 6.75V4.75C9.5 4.61193 9.38807 4.5 9.25 4.5H1.75C1.61193 4.5 1.5 4.61193 1.5 4.75V11.25C1.5 11.3881 1.61193 11.5 1.75 11.5H9.25C9.38807 11.5 9.5 11.3881 9.5 11.25V9.25V6.75Z"/>
</svg>

<svg xmlns="http://www.w3.org/2000/svg" width="16" height="16" viewBox="0 0 16 16"><path fill-rule="evenodd" d="M16 3.75a.75.75 0 00-1.136-.643L11 5.425V4.75A1.75 1.75 0 009.25 3h-7.5A1.75 1.75 0 000 4.75v6.5C0 12.216.784 13 1.75 13h7.5A1.75 1.75 0 0011 11.25v-.675l3.864 2.318A.75.75 0 0016 12.25v-8.5zm-5 5.075l3.5 2.1v-5.85l-3.5 2.1v1.65zM9.5 6.75v-2a.25.25 0 00-.25-.25h-7.5a.25.25 0 00-.25.25v6.5c0 .138.112.25.25.25h7.5a.25.25 0 00.25-.25v-4.5z"/></svg>
